X: 13132
T: First Fiddler Of Dooney, The
R: reel
M: 4/4
K: Gmajor
|:B,D|~E3F GFGB|eB B/c/B BAGF|Gg g/a/g e/f/g ed|B2 Ac BAGF|
EB,EF GFEG|FB B/c/B BAGF|Ggge fdBA|FBAF E2:|
|:B/c/d|e3 f gfga|be e/g/e edBd|gBaB bBaB|gfed ed B/c/d|
eBef gfga|be e/g/e edBA|Gg g/a/g fdBA|FBAF E2:|

